X:4233
T:Doktore glava me boli (Doctor, my head hurts)
S:Hamish Small 
R:Other
O:Macedonia
N:Title says it all ;-)
M:2/4
L:1/8
K:Bb
B2BB|d2d2|de dc|d2d2|B2cB|d2d2|de dc|d2d2::
B2cB|de dc|B2cB|df dc|d2d2|B4:|
